usr/share/icons/big-icons/symbolic/actions/view-financial-account-loan-closed.svg

<svg version="1.1" viewBox="0 0 16 16" xmlns="http://www.w3.org/2000/svg"><style type="text/css" id="current-color-scheme">.ColorScheme-NegativeText { color: #da4453; }.ColorScheme-Text { color:#eff0f1; }</style>
    <path d="m5.1210938 3 1 1h3.8789062v1h-2.8789062l1 1h1.8789062v1.8789062l2 2v-3.8789062h1v4.878906l1 1v-6.878906h-3v-2h-5.8789062zm-3.1210938 2v8h8.878906l-0.9999998-1h-3.8789062v-3.8789062l-2-2v5.8789062h-1v-6h0.8789062l-1-1h-0.8789062z" fill="currentColor" class="ColorScheme-Text"/>
    <path d="M 2.7070312,2 2,2.7070312 13.292969,14 14,13.267578 Z" fill="currentColor" class="ColorScheme-NegativeText"/>
</svg>

<svg xmlns="http://www.w3.org/2000/svg" viewBox="0 0 16 16">
<style id="current-color-scheme" type="text/css">
.ColorScheme-NegativeText{color:#da4453}.ColorScheme-Text{color:#fcfcfc}
</style>
<path fill="currentColor" d="m5.121 3 1 1H10v1H7.121l1 1H10v1.879l2 2V6h1v4.879l1 1V5h-3V3zM2 5v8h8.879l-1-1H6V8.121l-2-2V12H3V6h.879l-1-1z" class="ColorScheme-Text"/>
<path fill="currentColor" d="M2.707 2 2 2.707 13.293 14l.707-.732Z" class="ColorScheme-NegativeText"/>
</svg>
